wilib/img/svg/ico-exclamacao.svg

<svg xmlns="http://www.w3.org/2000/svg" xmlns:xlink="http://www.w3.org/1999/xlink" preserveAspectRatio="none" width="143" height="127" viewBox="0 0 143 127"><defs><linearGradient id="a" gradientUnits="userSpaceOnUse" x1="31.9" y1=".225" x2="31.9" y2="56.175"><stop offset="0%" stop-color="#FDCB38" stop-opacity=".102"/><stop offset="100%" stop-color="#FFF" stop-opacity=".102"/></linearGradient><linearGradient id="b" gradientUnits="userSpaceOnUse" x1="31.9" y1="34.2" x2="31.9" y2="64.1"><stop offset="2.353%" stop-color="#FDCB38" stop-opacity=".702"/><stop offset="100%" stop-color="#FFF" stop-opacity=".702"/></linearGradient><linearGradient id="c" gradientUnits="userSpaceOnUse" x1="28.9" y1="39.85" x2="28.9" y2="53.65"><stop offset="3.922%" stop-color="#FDCB38" stop-opacity=".102"/><stop offset="100%" stop-color="#FFF" stop-opacity=".102"/></linearGradient><linearGradient id="d" gradientUnits="userSpaceOnUse" x1="29.1" y1="38.5" x2="29.1" y2="2.5"><stop offset="0%" stop-color="#FDCB38" stop-opacity=".6"/><stop offset="100%" stop-color="#FFF" stop-opacity=".6"/></linearGradient><path fill="#EFEFEF" d="M27.7 4.85L2.65 47.9q-.9 1.6-.9 3.45 0 1.9.9 3.45 2 3.4 6 3.5H58.7q4-.1 6-3.5.9-1.55.9-3.45 0-1.85-.9-3.45L39.65 4.85q-2.05-3.45-6-3.45-3.9 0-5.95 3.45z" id="e"/><path fill="#FFF" d="M25.95 3.45L.9 46.5Q0 48.1 0 49.95q0 1.9.9 3.45 2 3.4 6 3.5h50.05q4-.1 6-3.5.9-1.55.9-3.45 0-1.85-.9-3.45L37.9 3.45Q35.85 0 31.9 0 28 0 25.95 3.45z" id="f"/><path fill="#FDCB38" d="M28.55 4.7L3.5 47.75q-1.15 1.95 0 3.9 1.1 2 3.4 2h50.05q2.3 0 3.4-2 1.15-1.95 0-3.9L35.3 4.7q-1.15-1.95-3.4-1.95-2.2 0-3.35 1.95z" id="h"/><path fill="url(#a)" d="M28.65 5.5L4.5 47.05q-1.05 1.85 0 3.8 1.05 1.85 3.25 1.85H56.1q2.2 0 3.25-1.85 1.15-1.95 0-3.8L35.2 5.5q-1.1-1.8-3.25-1.8-2.2 0-3.3 1.8z" id="j"/><path fill="url(#b)" d="M31.95 3.7q-2.2 0-3.3 1.8L4.5 47.05q-1.05 1.85 0 3.8 1.05 1.85 3.25 1.85H56.1q2.2 0 3.25-1.85 1.15-1.95 0-3.8L35.2 5.5q-1.1-1.8-3.25-1.8z" id="k"/><path fill="#FFF" d="M28.3 40.9q-1.45 1.45-1.45 3.55 0 2.15 1.45 3.6 1.5 1.5 3.6 1.5 2.05 0 3.55-1.5t1.5-3.6q0-2.05-1.5-3.55t-3.55-1.5q-2.1 0-3.6 1.5m-.15-23.35q-1.2 1.35-1.2 3.9 0 2.25.55 5.95.5 3.55 1.5 8 .25 1.3.9 1.8.65.55 2 .55 1.3 0 1.95-.55.7-.5.9-1.8 1-4.2 1.55-8 .5-3.35.5-5.95 0-2.5-1.15-3.9-1.25-1.4-3.75-1.4-2.6 0-3.75 1.4z" id="l"/><path fill="url(#c)" d="M31.95 3.7q-2.2 0-3.3 1.8L4.5 47.05q-1.05 1.85 0 3.8 1.05 1.85 3.25 1.85H56.1q2.2 0 3.25-1.85 1.15-1.95 0-3.8L35.2 5.5q-1.1-1.8-3.25-1.8z" id="n"/><path fill="url(#d)" d="M32.05 4.05q-2.2 0-3.4 1.95L11.1 36.95Q24.05 26.1 39.65 26.1q4.6 0 7.45.8L35.45 6q-1.15-1.95-3.4-1.95z" id="o"/><path id="g" stroke="#EAE9E8" stroke-linejoin="round" stroke-linecap="round" fill="none" d="M37.9 3.45L62.95 46.5q.9 1.6.9 3.45 0 1.9-.9 3.45-2 3.4-6 3.5H6.9q-4-.1-6-3.5-.9-1.55-.9-3.45 0-1.85.9-3.45L25.95 3.45Q28 0 31.9 0q3.95 0 6 3.45z"/><path id="i" stroke="#FFBF00" stroke-linejoin="round" stroke-linecap="round" fill="none" d="M3.5 47.75q-1.15 1.95 0 3.9 1.1 2 3.4 2h50.05q2.3 0 3.4-2 1.15-1.95 0-3.9L35.3 4.7q-1.15-1.95-3.4-1.95-2.2 0-3.35 1.95L3.5 47.75z"/><path id="m" stroke="#FCBE22" stroke-linejoin="round" stroke-linecap="round" fill="none" d="M28.15 17.55q1.15-1.4 3.75-1.4 2.5 0 3.75 1.4 1.15 1.4 1.15 3.9 0 2.6-.5 5.95-.55 3.8-1.55 8-.2 1.3-.9 1.8-.65.55-1.95.55-1.35 0-2-.55-.65-.5-.9-1.8-1-4.45-1.5-8-.55-3.7-.55-5.95 0-2.55 1.2-3.9zm8.8 26.9q0 2.1-1.5 3.6t-3.55 1.5q-2.1 0-3.6-1.5-1.45-1.45-1.45-3.6 0-2.1 1.45-3.55 1.5-1.5 3.6-1.5 2.05 0 3.55 1.5t1.5 3.55z"/></defs><use xlink:href="#e" transform="matrix(2.1535 -.00017 .00016 2.1535 1.537 1.005)"/><g transform="matrix(2.1535 -.00017 .00016 2.1535 1.537 1.005)"><use xlink:href="#f"/><use xlink:href="#g"/></g><use xlink:href="#h" transform="matrix(2.1535 -.00017 .00016 2.1535 1.537 1.005)"/><use xlink:href="#i" transform="matrix(2.1535 -.00017 .00016 2.1535 1.537 1.005)"/><use xlink:href="#j" transform="matrix(2.1535 -.00017 .00016 2.1535 1.537 1.005)"/><use xlink:href="#k" transform="matrix(2.1535 -.00017 .00016 2.1535 1.537 1.005)"/><use xlink:href="#l" transform="matrix(2.1535 -.00017 .00016 2.1535 1.537 1.005)"/><use xlink:href="#m" transform="matrix(2.1535 -.00017 .00016 2.1535 1.537 1.005)"/><use xlink:href="#n" transform="matrix(2.1535 -.00017 .00016 2.1535 1.537 1.005)"/><use xlink:href="#o" transform="matrix(2.1535 -.00017 .00016 2.1535 1.537 1.005)"/></svg>

<svg xmlns="http://www.w3.org/2000/svg" version="1.1" xmlns:xlink="http://www.w3.org/1999/xlink" preserveAspectRatio="none" x="0px" y="0px" width="143px" height="127px" viewBox="0 0 143 127">
<defs>
<linearGradient id="Gradient_1" gradientUnits="userSpaceOnUse" x1="31.9" y1="0.22499999999999787" x2="31.9" y2="56.175" spreadMethod="pad">
<stop  offset="0%" stop-color="#FDCB38" stop-opacity="0.10196078431372549"/>

<stop  offset="100%" stop-color="#FFFFFF" stop-opacity="0.10196078431372549"/>
</linearGradient>

<linearGradient id="Gradient_2" gradientUnits="userSpaceOnUse" x1="31.9" y1="34.199999999999996" x2="31.9" y2="64.1" spreadMethod="pad">
<stop  offset="2.3529411764705883%" stop-color="#FDCB38" stop-opacity="0.7019607843137254"/>

<stop  offset="100%" stop-color="#FFFFFF" stop-opacity="0.7019607843137254"/>
</linearGradient>

<linearGradient id="Gradient_3" gradientUnits="userSpaceOnUse" x1="28.9" y1="39.85" x2="28.9" y2="53.65" spreadMethod="pad">
<stop  offset="3.9215686274509802%" stop-color="#FDCB38" stop-opacity="0.10196078431372549"/>

<stop  offset="100%" stop-color="#FFFFFF" stop-opacity="0.10196078431372549"/>
</linearGradient>

<linearGradient id="Gradient_4" gradientUnits="userSpaceOnUse" x1="29.1" y1="38.5" x2="29.1" y2="2.5" spreadMethod="pad">
<stop  offset="0%" stop-color="#FDCB38" stop-opacity="0.6"/>

<stop  offset="100%" stop-color="#FFFFFF" stop-opacity="0.6"/>
</linearGradient>

<g id="gr_atencao_0_Layer0_0_MEMBER_0_FILL">
<path fill="#EFEFEF" stroke="none" d="
M 27.7 4.85
L 2.65 47.9
Q 1.75 49.5 1.75 51.35 1.75 53.25 2.65 54.8 4.65 58.2 8.65 58.3
L 58.7 58.3
Q 62.7 58.2 64.7 54.8 65.6 53.25 65.6 51.35 65.6 49.5 64.7 47.9
L 39.65 4.85
Q 37.6 1.4 33.65 1.4 29.75 1.4 27.7 4.85 Z"/>
</g>

<g id="gr_atencao_0_Layer0_0_MEMBER_1_FILL">
<path fill="#FFFFFF" stroke="none" d="
M 25.95 3.45
L 0.9 46.5
Q 0 48.1 0 49.95 0 51.85 0.9 53.4 2.9 56.8 6.9 56.9
L 56.95 56.9
Q 60.95 56.8 62.95 53.4 63.85 51.85 63.85 49.95 63.85 48.1 62.95 46.5
L 37.9 3.45
Q 35.85 0 31.9 0 28 0 25.95 3.45 Z"/>
</g>

<g id="gr_atencao_0_Layer0_0_MEMBER_2_FILL">
<path fill="#FDCB38" stroke="none" d="
M 28.55 4.7
L 3.5 47.75
Q 2.35 49.7 3.5 51.65 4.6 53.65 6.9 53.65
L 56.95 53.65
Q 59.25 53.65 60.35 51.65 61.5 49.7 60.35 47.75
L 35.3 4.7
Q 34.15 2.75 31.9 2.75 29.7 2.75 28.55 4.7 Z"/>
</g>

<g id="gr_atencao_0_Layer0_0_MEMBER_4_FILL">
<path fill="url(#Gradient_1)" stroke="none" d="
M 28.65 5.5
L 4.5 47.05
Q 3.45 48.9 4.5 50.85 5.55 52.7 7.75 52.7
L 56.1 52.7
Q 58.3 52.7 59.35 50.85 60.5 48.9 59.35 47.05
L 35.2 5.5
Q 34.1 3.7 31.95 3.7 29.75 3.7 28.65 5.5 Z"/>
</g>

<g id="gr_atencao_0_Layer0_0_MEMBER_5_FILL">
<path fill="url(#Gradient_2)" stroke="none" d="
M 31.95 3.7
Q 29.75 3.7 28.65 5.5
L 4.5 47.05
Q 3.45 48.9 4.5 50.85 5.55 52.7 7.75 52.7
L 56.1 52.7
Q 58.3 52.7 59.35 50.85 60.5 48.9 59.35 47.05
L 35.2 5.5
Q 34.1 3.7 31.95 3.7 Z"/>
</g>

<g id="gr_atencao_0_Layer0_0_MEMBER_6_MEMBER_0_FILL">
<path fill="#FFFFFF" stroke="none" d="
M 28.3 40.9
Q 26.85 42.35 26.85 44.45 26.85 46.6 28.3 48.05 29.8 49.55 31.9 49.55 33.95 49.55 35.45 48.05 36.95 46.55 36.95 44.45 36.95 42.4 35.45 40.9 33.95 39.4 31.9 39.4 29.8 39.4 28.3 40.9
M 28.15 17.55
Q 26.95 18.9 26.95 21.45 26.95 23.7 27.5 27.4 28 30.95 29 35.4 29.25 36.7 29.9 37.2 30.55 37.75 31.9 37.75 33.2 37.75 33.85 37.2 34.55 36.7 34.75 35.4 35.75 31.2 36.3 27.4 36.8 24.05 36.8 21.45 36.8 18.95 35.65 17.55 34.4 16.15 31.9 16.15 29.3 16.15 28.15 17.55 Z"/>
</g>

<g id="gr_atencao_0_Layer0_0_MEMBER_7_MEMBER_0_FILL">
<path fill="url(#Gradient_3)" stroke="none" d="
M 31.95 3.7
Q 29.75 3.7 28.65 5.5
L 4.5 47.05
Q 3.45 48.9 4.5 50.85 5.55 52.7 7.75 52.7
L 56.1 52.7
Q 58.3 52.7 59.35 50.85 60.5 48.9 59.35 47.05
L 35.2 5.5
Q 34.1 3.7 31.95 3.7 Z"/>
</g>

<g id="gr_atencao_0_Layer0_0_MEMBER_7_MEMBER_1_FILL">
<path fill="url(#Gradient_4)" stroke="none" d="
M 32.05 4.05
Q 29.85 4.05 28.65 6
L 11.1 36.95
Q 24.05 26.1 39.65 26.1 44.25 26.1 47.1 26.9
L 35.45 6
Q 34.3 4.05 32.05 4.05 Z"/>
</g>

<path id="gr_atencao_0_Layer0_0_MEMBER_1_1_STROKES" stroke="#EAE9E8" stroke-width="1" stroke-linejoin="round" stroke-linecap="round" fill="none" d="
M 37.9 3.45
L 62.95 46.5
Q 63.85 48.1 63.85 49.95 63.85 51.85 62.95 53.4 60.95 56.8 56.95 56.9
L 6.9 56.9
Q 2.9 56.8 0.9 53.4 0 51.85 0 49.95 0 48.1 0.9 46.5
L 25.95 3.45
Q 28 0 31.9 0 35.85 0 37.9 3.45 Z"/>

<path id="gr_atencao_0_Layer0_0_MEMBER_3_1_STROKES" stroke="#FFBF00" stroke-width="1" stroke-linejoin="round" stroke-linecap="round" fill="none" d="
M 3.5 47.75
Q 2.35 49.7 3.5 51.65 4.6 53.65 6.9 53.65
L 56.95 53.65
Q 59.25 53.65 60.35 51.65 61.5 49.7 60.35 47.75
L 35.3 4.7
Q 34.15 2.75 31.9 2.75 29.7 2.75 28.55 4.7
L 3.5 47.75 Z"/>

<path id="gr_atencao_0_Layer0_0_MEMBER_6_MEMBER_1_MEMBER_0_1_STROKES" stroke="#FCBE22" stroke-width="1" stroke-linejoin="round" stroke-linecap="round" fill="none" d="
M 28.15 17.55
Q 29.3 16.15 31.9 16.15 34.4 16.15 35.65 17.55 36.8 18.95 36.8 21.45 36.8 24.05 36.3 27.4 35.75 31.2 34.75 35.4 34.55 36.7 33.85 37.2 33.2 37.75 31.9 37.75 30.55 37.75 29.9 37.2 29.25 36.7 29 35.4 28 30.95 27.5 27.4 26.95 23.7 26.95 21.45 26.95 18.9 28.15 17.55 Z
M 36.95 44.45
Q 36.95 46.55 35.45 48.05 33.95 49.55 31.9 49.55 29.8 49.55 28.3 48.05 26.85 46.6 26.85 44.45 26.85 42.35 28.3 40.9 29.8 39.4 31.9 39.4 33.95 39.4 35.45 40.9 36.95 42.4 36.95 44.45 Z"/>
</defs>

<g id="seta_01" transform="matrix( -10.847579956054688, 6.2639617919921875, -6.2639617919921875, -10.847579956054688, 28.45,54.5) ">
<g transform="matrix( 0.081787109375, 0, 0, 0.081787109375, -2.7,-2.4) ">
<g transform="matrix( -1.8204193115234375, -1.0510101318359375, 1.051025390625, -1.8204193115234375, 29.65,87.7) ">
<g transform="matrix( 1, 0, 0, 1, 0,0) ">
<use xlink:href="#gr_atencao_0_Layer0_0_MEMBER_0_FILL"/>
</g>

<g transform="matrix( 1, 0, 0, 1, 0,0) ">
<use xlink:href="#gr_atencao_0_Layer0_0_MEMBER_1_FILL"/>

<use xlink:href="#gr_atencao_0_Layer0_0_MEMBER_1_1_STROKES"/>
</g>

<g transform="matrix( 1, 0, 0, 1, 0,0) ">
<use xlink:href="#gr_atencao_0_Layer0_0_MEMBER_2_FILL"/>
</g>

<g transform="matrix( 1, 0, 0, 1, 0,0) ">
<use xlink:href="#gr_atencao_0_Layer0_0_MEMBER_3_1_STROKES"/>
</g>

<g transform="matrix( 1, 0, 0, 1, 0,0) ">
<use xlink:href="#gr_atencao_0_Layer0_0_MEMBER_4_FILL"/>
</g>

<g transform="matrix( 1, 0, 0, 1, 0,0) ">
<use xlink:href="#gr_atencao_0_Layer0_0_MEMBER_5_FILL"/>
</g>

<g transform="matrix( 1, 0, 0, 1, 0,0) ">
<use xlink:href="#gr_atencao_0_Layer0_0_MEMBER_6_MEMBER_0_FILL"/>
</g>

<g transform="matrix( 1, 0, 0, 1, 0,0) ">
<use xlink:href="#gr_atencao_0_Layer0_0_MEMBER_6_MEMBER_1_MEMBER_0_1_STROKES"/>
</g>

<g transform="matrix( 1, 0, 0, 1, 0,0) ">
<use xlink:href="#gr_atencao_0_Layer0_0_MEMBER_7_MEMBER_0_FILL"/>
</g>

<g transform="matrix( 1, 0, 0, 1, 0,0) ">
<use xlink:href="#gr_atencao_0_Layer0_0_MEMBER_7_MEMBER_1_FILL"/>
</g>
</g>
</g>
</g>
</svg>
